X:1
T:Fight about the fire side. 2voices. Dix.47
T:Fight about the fire side. 2voices. Dix.47
T:MS attributes Gow
C:MS attributes Gow
%%score 1 2
L:1/8
Q:1/4=120
M:2/2
K:C
V:1 treble 
V:2 treble 
V:1
|: c | GcEc Dd-dc | GcEc GcEc | FcEc DddB | cGcF ECC :: f | e<cg>c eddf | ecgc acgc | fage dcde | %9
 GAcd{f} e2 df | e<cg>c eddf | ecgc acgc | fage"^tr" d>cde | GAcd{cd} e2 dc"^$" :| %14
V:2
|: z | C,2 C,2 D,2 D,2 | C,2 C,2 C,2 C,2 | D,2 C,2 G,,2 G,2 | E,2 F,2 C,2 C, :: z | %6
 C2 C2 G,2 G,,2 | C,2 E,2 F,2 E,2 | D,2 C,2 G,,2 G,,2 | C,2 G,2 C,2 G,2 | C2 C2 G,2 G,2 | %11
 C,2 E,2 F,2 E,2 | D,2 C,2 G,,2 G,,2 | C,2 G,,2 [C,,C,]2 [C,,C,]2"^$" :| %14

